X: 1
T:Bourr\'ee Prends Garde au Loup
R:Bourr\'ee
M:3/8
O:France
K:C
A2c2e2| edc2B2| A2c2e2| e6|\
A2c2e2| edc2B2| A2c2e2| e6:|
|: A2B2d2| c2A2c2| BAG2A2| c4B2|\
A2B2d2| c2A2c2| edc2B2| A6 :|
